X: 711
T: Katy Hill
C:Trad.
B: jims roots
M:4/4
L:1/8
Q: 1/4=100
K:G
V:1 
%Reel
%122
"G"[d2g][dg][dg] bgba | gbag efg2 | [d2g][dg][dg] bgag | edBd efg2 |
"G"BAGB AGEG | DEGA Bdef | gedB AGEG | DEGB AGEG |
BAGB AGEG | DEGA Bdef | gedB AGEG |[1 "D"DEGB "G"AG z2 :| [2 "D"DEGA "G"G2 z2 |]
V:d2g 
V:dg 
[dg] bgba | gbag efga | gedB AGEG | [1 "D"DEGB "G"AF G2:|[2 "D"DEGB "G"AGz2 ||
% abcbook-tune_id 6298c25dc9c6da105eb2544b


% abcbook-boost 0
% abcbook-tablature 
% abcbook-transpose 
% abcbook-lastupdated 1654178399448
% abcbook-soundfonts 
% abcbook-repeats 1


